!!!COM: Schubert, Franz
!!!CNT: Deutscher
!!!TXO: Deutsch
!!!LYR: Ludwig Christoph Heinrich Ho2lty
!!!OTL: "An den Mond"
!!!OPS: Op. 57
!!!ONM: No. 3
!!!ODT: 1815/
!!NB: Vocal melody only encoded.
!!NB: Original key: f minor
**kern	**silbe
*staff1	*
*clefG2	*
*k[b-]	*
*M12/8	*
*MM[Langsam, wehmutig]	*
=1	=1
1.r	.
=2	=2
1.r	.
=3	=3
2.r	.
4r	.
8r	.
4r	.
{16f	{Geuss,
16g	|
=4	=4
[4.a	lie-
8a]	|
8g	|
8a	-ber
4cc	Mond,
8b-}	|}
4r	.
{16b-	{geuss
16a	|
=5	=5
4g	dei-
8g	-ne
8g	Sil-
8f	|
8g	-ber-
4b-	-flim-
8a}	-mer}
4r	.
{8a	{durch
=6	=6
[4.b-	die-
8b-]	|
8dd	|
8cc	-ses
4.a	Bu-
8a	|
8cc	|
8b-	-chen-
=7	=7
4.g}	-gru2n,}
4.r	.
4.r	.
4r	.
{8g	{wo
=8	=8
[4.a-	Phan-
4a-]	|
8cc	-ta-
4ee-	-si-
8f#	-en
4r	.
8f#	und
=9	=9
[4.g	Traum-
4g]	|
8b-	-ge-
4dd	-stal-
8cc#}	-ten}
8r	.
8r	.
8r	.
=10	=10
{[4.dd	{im-
8dd]	|
8cc	-mer
8b-	vor
8.a	mir
16g#	|
8a	vor-
4b-	-u2-
8a	-ber-
=11	=11
4.d}	-fliehn!}
8r	.
8r	.
8r	.
8r	.
8r	.
8r	.
8r	.
8r	.
8r	.
=12	=12
*met(C)	*
*M4/4	*
2.r	.
8r	.
{8a	{Ent-
=13	=13
*MM[Etwas geschwind]	*
4.a	-hu2l-
8b-	-le
4.g	dich,
8a	dass
=14	=14
8b-	ich
8a	die
8b-	Sta2t-
8cc	-te
4b-	fin-
8a	-de,
8a	wo
=15	=15
4.dd	oft
8cc	mein
8cc	Ma2d-
8b-	|
8a	-chen
8b-	|
=16	=16
2g}	sass,}
4r	.
{4g	{und
=17	=17
4.cc	oft
8e	im
4.f	Wehn
8a	des
=18	=18
8cc	Buch-
8bn	-baums
8cc	und
8g	der
4b-	Lin-
8a	-de
8b-	der
=19	=19
[4cc	gold-
12cc]	|
12b-	|
12g	-nen
4f	Stadt
8g	ver-
8g#	|
=20	=20
2.a}	-gass!}
8r	.
{8a	{Ent-
=21	=21
4.a	=hu2l-
8b-	-le
4.g	dich,
8a	dass
=22	=22
8b-	ich
8a	des
8b-	Strauchs
8cc	mich
4b-	freu-
8a	-e,
8a	der
=23	=23
4.dd	Ku2h-
8cc	-lung
8cc	ihr
8b-	|
8a	ge-
8b-	|
=24	=24
2g}	-rauscht,}
4r	.
{4g	{und
=25	=25
4.cc	ei-
8e	-nen
4.f	Kranz
8a	auf
=26	=26
8cc	je-
8bn	-den
8cc	An-
8g	-ger
4b-	streu-
8a	-e,
8b-	wo
=27	=27
[4cc	sie
12cc]	|
12b-	|
12g	den
4f	Bach
8g	be-
8g#	|
=28	=28
2.a}	-lauscht!}
8r	.
{16f	{Dann,
16g	|
=29	=29
*M12/8	*
*MM[wie oben]	*
[4.a	lie-
8a]	|
8g	|
8a	-ber
4cc	Mond,
8b-}	|}
4r	.
{16b-	{dann
16a	|
=30	=30
4g	nimm
8g	den
8g	Schlei-
8f	|
8g	-er
4b-	wie-
8a}	-der,}
4r	.
{8a	{und
=31	=31
[4.b-	traur'
8b-]	|
8dd	|
8cc	um
[4.a	dei-
8a]	|
8cc	|
8b-	-nen
=32	=32
4.g}	Freund,}
4.r	.
4.r	.
4r	.
{8g	{und
=33	=33
[4.a-	wei-
4a-]	|
8cc	|
4ee-	|
8f#	-ne
8r	.
8f#	durch
16g	den
16an	|
=34	=34
[4.g	Wol-
4g]	|
8b-	-ken-
4dd	-flor
8cc#}	|}
4r	.
{8cc#	{her-
=35	=35
[4.dd	-nie-
8dd]	|
8cc	-der,
8b-	wie
8.a	dein
16g#	|
8a	Ver-
4b-	-lass-
8a	-ner
=36	=36
4.d}	weint!}
==	==
*-	*-
